frontend/src/assets/logo.svg

<svg color-interpolation-filters="sRGB" viewBox="0 0 300 100">
    <g transform="translate(35,20)" fill="#00c9ff">
        <g transform="translate(0)" mask="url(#b)">
            <svg width="60" height="63.949" overflow="visible">
                <svg enable-background="new 0 0 64 64" fill="#000000" version="1.1"
                    viewBox="3.14833402633667 1.2495145797729492 57.70317459106445 61.501094818115234">
                    <path
                        d="m58.254 2.789c-2.143-1.725-5.105-2.027-7.547-0.771l-43.783 22.51c-2.643 1.359-4.101 4.143-3.714 7.094 0.387 2.953 2.515 5.267 5.418 5.9l18.443 4.009 7.859 17.164c1.24 2.702 3.955 4.283 6.92 4.029s5.374-2.273 6.136-5.145l12.633-47.582 1e-3 -3e-3c0.703-2.655-0.226-5.482-2.366-7.205zm-17.397 49.766-8.216-17.944-19.286-4.192 38.655-19.872-11.153 42.008z">
                    </path>
                </svg>
            </svg>
            <rect transform="translate(-6 -6)" width="72" height="75.949" fill="url(#a)" pointer-events="none"
                v-gra="id" />
        </g>
        <g transform="translate(67 15.219)">
            <g fill="url(#a)" fill-rule="" data-gra="path-name">
                <g transform="scale(1)">
                    <path transform="translate(-.37 26.04)"
                        d="m13.19 0h-4.65l-8.17-26.01h4.68l5.76 18.32 5.31-18.32h4.68l5.76 18.32 5.32-18.32h4.64l-7.58 26.01h-4.64l-5.76-18.32-5.35 18.32zm37-18.61h4.46v18.61h-4.46v-9.29q0-2.23-1.56-3.79t-3.79-1.56q-1.08 0-2.06 0.41-0.99 0.41-1.73 1.15-1.56 1.56-1.56 3.79 0 2.19 1.56 3.75 0.74 0.78 1.73 1.17 0.98 0.39 2.06 0.39 1.11 0 2.01-0.37l1.59 3.98q-1.7 0.85-3.97 0.85-2.04 0-3.77-0.76t-2.99-2.1q-1.27-1.34-1.97-3.12-0.71-1.78-0.71-3.79 0-2.04 0.71-3.82 0.7-1.79 1.97-3.12 1.26-1.34 2.99-2.1 1.73-0.77 3.77-0.77 1.82 0 3.23 0.56t2.49 1.41v-1.48zm23.18 0.03h4.91l-8.62 18.58-1.15 2.53q-1.04 2.26-3.13 3.6-2.08 1.34-4.6 1.34h-1.97l1.11-4.46h1.08q1.08 0 2.01-0.6 0.93-0.59 1.37-1.59l0.37-0.82-8.62-18.58h4.91l6.16 13.3 6.17-13.3zm14.97-2.97q-0.93 0-1.72 0.36-0.8 0.35-1.42 0.94-0.61 0.6-0.98 1.4-0.37 0.79-0.37 1.72h2.64l1.11 4.46h-3.75v12.67h-4.46v-12.67-4.42-0.04q0.04-1.78 0.71-3.4 0.66-1.61 1.93-2.87 1.26-1.27 2.9-1.94 1.63-0.67 3.41-0.67v4.46zm6.13 21.55h-4.45v-18.58h4.45v18.58zm-4.45-21.55v-4.46h4.45v4.46h-4.45zm16.42 2.45q1.82 0 3.3 0.69 1.49 0.69 2.55 1.9 1.06 1.2 1.63 2.8 0.58 1.6 0.58 3.42v10.29h-4.46v-10.29q0-1.86-1.3-3.08-1.26-1.27-3.05-1.27-1.82 0-3.08 1.27-1.26 1.26-1.26 3.08v10.29h-4.46v-18.58h4.46v1.42q1-0.86 2.26-1.4 1.27-0.54 2.83-0.54zm24.85-6.94h4.46v26.04h-4.46v-9.29q0-2.26-1.56-3.79-1.56-1.56-3.75-1.56-2.23 0-3.79 1.56t-1.56 3.79q0 2.19 1.56 3.75 0.74 0.78 1.72 1.17 0.99 0.39 2.07 0.39 1.07 0 1.97-0.37l1.59 3.98q-1.71 0.85-3.93 0.85-2.05 0-3.78-0.76-1.72-0.76-2.99-2.1-1.26-1.34-1.97-3.12-0.7-1.78-0.7-3.79 0-2.04 0.7-3.82 0.71-1.79 1.97-3.12 1.27-1.34 2.99-2.1 1.73-0.77 3.78-0.77 1.78 0 3.19 0.56t2.49 1.41v-8.91zm25.86 18.98h-4.68-9.74q0.37 0.86 1.08 1.52 0.78 0.78 1.75 1.17 0.96 0.39 2.04 0.39 1.52 0 2.71-0.7l4.64 1.86q-1.33 1.56-3.23 2.43-1.89 0.87-4.12 0.87-2.04 0-3.83-0.76-1.78-0.76-3.12-2.1t-2.1-3.12-0.76-3.79q0-2.04 0.76-3.82 0.76-1.79 2.1-3.12 1.34-1.34 3.12-2.1 1.79-0.77 3.83-0.77t3.82 0.77q1.79 0.76 3.13 2.1 1.33 1.33 2.09 3.12 0.77 1.78 0.77 3.82 0 1.19-0.26 2.23zm-9.55-7.58q-2.16 0-3.79 1.56-0.71 0.71-1.08 1.56h9.74q-0.38-0.85-1.08-1.56-1.56-1.56-3.79-1.56zm16.31-2.52q1.04-0.86 2.36-1.42 1.32-0.55 2.99-0.55v4.46q-2.23 0-3.79 1.56-1.56 1.63-1.56 3.79v9.32h-4.46v-9.32-9.29h4.46v1.45z" />
                </g>
            </g>
        </g>
    </g>
    <defs v-gra="od">
        <linearGradient id="a" x2="0" y1="1">
            <stop stop-color="#00c9ff" offset="0" />
            <stop stop-color="#92fe9d" offset="1" />
        </linearGradient>
    </defs>
    <defs v-gra="id">
        <filter id="c" filterUnits="userSpaceOnUse">
            <feColorMatrix values="0 0 0 0 0.99609375  0 0 0 0 0.99609375  0 0 0 0 0.99609375  0 0 0 1 0">
            </feColorMatrix>
        </filter>
    </defs>
    <mask id="b" v-gra="im">
        <g filter="url(#c)">
            <rect width="60" height="63.949" fill="#00c9ff" fill-opacity="0" stroke-width="2" />
            <svg width="60" height="63.949" overflow="visible">
                <svg enable-background="new 0 0 64 64" fill="#000000" version="1.1"
                    viewBox="3.14833402633667 1.2495145797729492 57.70317459106445 61.501094818115234">
                    <path
                        d="m58.254 2.789c-2.143-1.725-5.105-2.027-7.547-0.771l-43.783 22.51c-2.643 1.359-4.101 4.143-3.714 7.094 0.387 2.953 2.515 5.267 5.418 5.9l18.443 4.009 7.859 17.164c1.24 2.702 3.955 4.283 6.92 4.029s5.374-2.273 6.136-5.145l12.633-47.582 1e-3 -3e-3c0.703-2.655-0.226-5.482-2.366-7.205zm-17.397 49.766-8.216-17.944-19.286-4.192 38.655-19.872-11.153 42.008z">
                    </path>
                </svg>
            </svg>
        </g>
    </mask>
</svg>

<svg data-v-0dd9719b="" version="1.0" xmlns="http://www.w3.org/2000/svg" xmlns:xlink="http://www.w3.org/1999/xlink"
    width="100%" height="100%" viewBox="0 0 300.000000 100.000000" preserveAspectRatio="xMidYMid meet"
    color-interpolation-filters="sRGB" style="margin: auto;">

    <rect data-v-0dd9719b="" x="0" y="0" width="100%" height="100%" fill="url(#watermark)" fill-opacity="1"
        class="watermarklayer"></rect>
    <g data-v-0dd9719b="" fill="#00c9ff" class="icon-text-wrapper icon-svg-group iconsvg" transform="translate(35,20)">
        <g class="iconsvg-imagesvg" transform="translate(0,0)" mask="url(#6531a68f-f127-419d-93f0-168645278b93)">
            <g>
                <rect fill="#00c9ff" fill-opacity="0" stroke-width="2" x="0" y="0" width="60" height="63.94884092725819"
                    class="image-rect"></rect> <svg x="0" y="0" width="60" height="63.94884092725819"
                    filtersec="colorsb7957045944" class="image-svg-svg primary" style="overflow: visible;"><svg
                        fill="#000000" xmlns="http://www.w3.org/2000/svg" xmlns:xlink="http://www.w3.org/1999/xlink"
                        version="1.1" x="0px" y="0px"
                        viewBox="3.14833402633667 1.2495145797729492 57.70317459106445 61.501094818115234"
                        enable-background="new 0 0 64 64" xml:space="preserve">
                        <path
                            d="M58.254,2.789c-2.143-1.725-5.105-2.027-7.547-0.771L6.924,24.528c-2.643,1.359-4.101,4.143-3.714,7.094  c0.387,2.953,2.515,5.267,5.418,5.9l18.443,4.009l7.859,17.164c1.24,2.702,3.955,4.283,6.92,4.029  c2.965-0.254,5.374-2.273,6.136-5.145L60.619,9.997l0.001-0.003C61.323,7.339,60.394,4.512,58.254,2.789z M40.857,52.555  l-8.216-17.944l-19.286-4.192L52.01,10.547L40.857,52.555z">
                        </path>
                    </svg></svg>
                <!---->
            </g>
            <rect v-gra="id" width="72" height="75.9488410949707" transform="translate(-6, -6)"
                style="pointer-events:none;" fill="url(#s5R-5O7jCjmCHHkCwZwnU)"></rect>
        </g>
        <g transform="translate(67,15.219419479370117)">
            <g data-gra="path-name" fill-rule="" class="tp-name iconsvg-namesvg"
                fill="url(#819c73f9-0c9e-4232-be5f-25dd98d948ad)">
                <g transform="scale(1)">
                    <g>
                        <path
                            d="M13.19 0L13.19 0 8.54 0 0.37-26.01 5.05-26.01 10.81-7.69 16.12-26.01 20.8-26.01 26.56-7.69 31.88-26.01 36.52-26.01 28.94 0 24.3 0 18.54-18.32 13.19 0ZM50.19-18.61L54.65-18.61 54.65 0 50.19 0 50.19-9.29Q50.19-11.52 48.63-13.08L48.63-13.08Q47.07-14.64 44.84-14.64L44.84-14.64Q43.76-14.64 42.78-14.23 41.79-13.82 41.05-13.08L41.05-13.08Q39.49-11.52 39.49-9.29L39.49-9.29Q39.49-7.1 41.05-5.54L41.05-5.54Q41.79-4.76 42.78-4.37 43.76-3.98 44.84-3.98L44.84-3.98Q45.95-3.98 46.85-4.35L46.85-4.35 48.44-0.37Q46.74 0.48 44.47 0.48L44.47 0.48Q42.43 0.48 40.7-0.28 38.97-1.04 37.71-2.38 36.44-3.72 35.74-5.5 35.03-7.28 35.03-9.29L35.03-9.29Q35.03-11.33 35.74-13.11 36.44-14.9 37.71-16.23 38.97-17.57 40.7-18.33 42.43-19.1 44.47-19.1L44.47-19.1Q46.29-19.1 47.7-18.54 49.11-17.98 50.19-17.13L50.19-17.13 50.19-18.61ZM73.37-18.58L78.28-18.58 69.66 0 68.51 2.53Q67.47 4.79 65.38 6.13 63.3 7.47 60.78 7.47L60.78 7.47 58.81 7.47 59.92 3.01 61 3.01Q62.08 3.01 63.01 2.41 63.94 1.82 64.38 0.82L64.38 0.82 64.75 0 56.13-18.58 61.04-18.58 67.2-5.28 73.37-18.58ZM88.34-21.55L88.34-21.55Q87.41-21.55 86.62-21.19 85.82-20.84 85.2-20.25 84.59-19.65 84.22-18.85 83.85-18.06 83.85-17.13L83.85-17.13 86.49-17.13 87.6-12.67 83.85-12.67 83.85 0 79.39 0 79.39-12.67 79.39-17.09 79.39-17.13Q79.43-18.91 80.1-20.53 80.76-22.14 82.03-23.4L82.03-23.4Q83.29-24.67 84.93-25.34 86.56-26.01 88.34-26.01L88.34-26.01 88.34-21.55ZM94.47 0L90.02 0 90.02-18.58 94.47-18.58 94.47 0ZM90.02-21.55L90.02-26.01 94.47-26.01 94.47-21.55 90.02-21.55ZM106.44-19.1L106.44-19.1Q108.26-19.1 109.74-18.41 111.23-17.72 112.29-16.51 113.35-15.31 113.92-13.71 114.5-12.11 114.5-10.29L114.5-10.29 114.5 0 110.04 0 110.04-10.29Q110.04-12.15 108.74-13.37L108.74-13.37Q107.48-14.64 105.69-14.64L105.69-14.64Q103.87-14.64 102.61-13.37L102.61-13.37Q101.35-12.11 101.35-10.29L101.35-10.29 101.35 0 96.89 0 96.89-18.58 101.35-18.58 101.35-17.16Q102.35-18.02 103.61-18.56 104.88-19.1 106.44-19.1ZM131.29-26.04L135.75-26.04 135.75 0 131.29 0 131.29-9.29Q131.29-11.55 129.73-13.08L129.73-13.08Q128.17-14.64 125.98-14.64L125.98-14.64Q123.75-14.64 122.19-13.08L122.19-13.08Q120.63-11.52 120.63-9.29L120.63-9.29Q120.63-7.1 122.19-5.54L122.19-5.54Q122.93-4.76 123.91-4.37 124.9-3.98 125.98-3.98L125.98-3.98Q127.05-3.98 127.95-4.35L127.95-4.35 129.54-0.37Q127.83 0.48 125.61 0.48L125.61 0.48Q123.56 0.48 121.83-0.28 120.11-1.04 118.84-2.38 117.58-3.72 116.87-5.5 116.17-7.28 116.17-9.29L116.17-9.29Q116.17-11.33 116.87-13.11 117.58-14.9 118.84-16.23 120.11-17.57 121.83-18.33 123.56-19.1 125.61-19.1L125.61-19.1Q127.39-19.1 128.8-18.54 130.21-17.98 131.29-17.13L131.29-17.13 131.29-26.04ZM157.15-7.06L152.47-7.06 142.73-7.06Q143.1-6.2 143.81-5.54L143.81-5.54Q144.59-4.76 145.56-4.37 146.52-3.98 147.6-3.98L147.6-3.98Q149.12-3.98 150.31-4.68L150.31-4.68 154.95-2.82Q153.62-1.26 151.72-0.39 149.83 0.48 147.6 0.48L147.6 0.48Q145.56 0.48 143.77-0.28 141.99-1.04 140.65-2.38 139.31-3.72 138.55-5.5 137.79-7.28 137.79-9.29L137.79-9.29Q137.79-11.33 138.55-13.11 139.31-14.9 140.65-16.23 141.99-17.57 143.77-18.33 145.56-19.1 147.6-19.1L147.6-19.1Q149.64-19.1 151.42-18.33 153.21-17.57 154.55-16.23 155.88-14.9 156.64-13.11 157.41-11.33 157.41-9.29L157.41-9.29Q157.41-8.1 157.15-7.06L157.15-7.06ZM147.6-14.64L147.6-14.64Q145.44-14.64 143.81-13.08L143.81-13.08Q143.1-12.37 142.73-11.52L142.73-11.52 152.47-11.52Q152.09-12.37 151.39-13.08L151.39-13.08Q149.83-14.64 147.6-14.64ZM163.91-17.16L163.91-17.16Q164.95-18.02 166.27-18.58 167.59-19.13 169.26-19.13L169.26-19.13 169.26-14.67Q167.03-14.67 165.47-13.11L165.47-13.11Q163.91-11.48 163.91-9.32L163.91-9.32 163.91 0 159.45 0 159.45-9.32 159.45-18.61 163.91-18.61 163.91-17.16Z"
                            transform="translate(-0.3700000047683716, 26.040000915527344)"></path>
                    </g>
                    <!---->
                    <!---->
                    <!---->
                    <!---->
                    <!---->
                    <!---->
                    <!---->
                </g>
            </g>
            <!---->
        </g>
    </g>
    <defs v-gra="od">
        <linearGradient x1="0" y1="1" x2="0" y2="0" id="819c73f9-0c9e-4232-be5f-25dd98d948ad">
            <stop offset="0%" stop-color="#00c9ff"></stop>
            <stop offset="100%" stop-color="#92fe9d"></stop>
        </linearGradient>
        <filter id="42443b3f1de60f6b6fd3b6a9844b4764" filterUnits="objectBoundingBox">
            <feColorMatrix type="matrix" values="0 0 0 0 0.99609375  0 0 0 0 0.99609375  0 0 0 0 0.99609375  0 0 0 1 0">
            </feColorMatrix>
        </filter>
    </defs>
    <defs v-gra="id">
        <filter id="3ae9cd84-700c-453b-80eb-c1844c2b08ef" filterUnits="userSpaceOnUse">
            <feColorMatrix type="matrix" values="0 0 0 0 0.99609375  0 0 0 0 0.99609375  0 0 0 0 0.99609375  0 0 0 1 0">
            </feColorMatrix>
        </filter>
        <linearGradient x1="0" y1="1" x2="0" y2="0" id="s5R-5O7jCjmCHHkCwZwnU">
            <stop offset="0%" stop-color="#00c9ff"></stop>
            <stop offset="100%" stop-color="#92fe9d"></stop>
        </linearGradient>
        <filter id="42443b3f1de60f6b6fd3b6a9844b4764" filterUnits="objectBoundingBox">
            <feColorMatrix type="matrix" values="0 0 0 0 0.99609375  0 0 0 0 0.99609375  0 0 0 0 0.99609375  0 0 0 1 0">
            </feColorMatrix>
        </filter>
    </defs>
    <mask v-gra="im" id="6531a68f-f127-419d-93f0-168645278b93">
        <g class="iconsvg-imagesvg" filter="url(#3ae9cd84-700c-453b-80eb-c1844c2b08ef)">
            <g>
                <rect fill="#00c9ff" fill-opacity="0" stroke-width="2" x="0" y="0" width="60" height="63.94884092725819"
                    class="image-rect"></rect> <svg x="0" y="0" width="60" height="63.94884092725819"
                    filtersec="colorsb7957045944" class="image-svg-svg primary" style="overflow: visible;"><svg
                        fill="#000000" xmlns="http://www.w3.org/2000/svg" xmlns:xlink="http://www.w3.org/1999/xlink"
                        version="1.1" x="0px" y="0px"
                        viewBox="3.14833402633667 1.2495145797729492 57.70317459106445 61.501094818115234"
                        enable-background="new 0 0 64 64" xml:space="preserve">
                        <path
                            d="M58.254,2.789c-2.143-1.725-5.105-2.027-7.547-0.771L6.924,24.528c-2.643,1.359-4.101,4.143-3.714,7.094  c0.387,2.953,2.515,5.267,5.418,5.9l18.443,4.009l7.859,17.164c1.24,2.702,3.955,4.283,6.92,4.029  c2.965-0.254,5.374-2.273,6.136-5.145L60.619,9.997l0.001-0.003C61.323,7.339,60.394,4.512,58.254,2.789z M40.857,52.555  l-8.216-17.944l-19.286-4.192L52.01,10.547L40.857,52.555z">
                        </path>
                    </svg></svg>
                <!---->
            </g>
        </g>
    </mask>
</svg>
